assets/img/braze_icons/monitor-05.svg

<svg fill="none" height="24" viewBox="0 0 24 24" width="24" xmlns="http://www.w3.org/2000/svg"><g fill="#801ed7"><path clip-rule="evenodd" d="m18.8385 3h-3.677c-.5272-.00002-.982-.00003-1.3565.03057-.3954.0323-.7886.10362-1.167.29641-.5645.28762-1.0234.74657-1.311 1.31105-.1928.37838-.2641.7716-.2964 1.16695-.0306.37454-.0306.82926-.0306 1.35635v9.67717c0 .5271 0 .982.0306 1.3565.0323.3954.1036.7886.2964 1.167.2876.5645.7465 1.0234 1.311 1.311.3784.1928.7716.2641 1.167.2964.3745.0306.8293.0306 1.3564.0306h3.6772c.5271 0 .9819 0 1.3564-.0306.3954-.0323.7886-.1036 1.167-.2964.5645-.2876 1.0234-.7465 1.311-1.311.1928-.3784.2641-.7716.2964-1.167.0306-.3745.0306-.8293.0306-1.3564v-9.67712c0-.52714 0-.98193-.0306-1.3565-.0323-.39535-.1036-.78857-.2964-1.16695-.2876-.56448-.7465-1.02343-1.311-1.31105-.3784-.19279-.7716-.26411-1.167-.29641-.3745-.0306-.8293-.03059-1.3565-.03057zm-3.0885 5.25c0-.69035.5596-1.25 1.25-1.25s1.25.55965 1.25 1.25c0 .69036-.5596 1.25-1.25 1.25s-1.25-.55964-1.25-1.25zm1.25 4.25c-1.3807 0-2.5 1.1193-2.5 2.5s1.1193 2.5 2.5 2.5 2.5-1.1193 2.5-2.5-1.1193-2.5-2.5-2.5z" fill-rule="evenodd"/><path d="m8 5h-2.83854c-.52715-.00002-.98191-.00003-1.35649.03057-.39534.0323-.78856.10362-1.16694.29641-.56449.28762-1.02343.74656-1.31105 1.31105-.19279.37838-.26411.7716-.29641 1.16694-.030601.37457-.030586.82931-.03057 1.35644v3.67709c-.000016.5272-.000031.982.03057 1.3565.0323.3954.10362.7886.29641 1.167.28762.5645.74656 1.0234 1.31105 1.311.37838.1928.7716.2641 1.16694.2964.37457.0306.82933.0306 1.35648.0306h2.83855c.55229 0 1-.4477 1-1v-10c0-.55228-.44771-1-1-1z"/><path d="m5.5 19c-.55228 0-1 .4477-1 1s.44772 1 1 1h2.5c.55229 0 1-.4477 1-1s-.44771-1-1-1z"/></g></svg>

<svg width="24" height="24" viewBox="0 0 24 24" fill="none" xmlns="http://www.w3.org/2000/svg">
<path fill-rule="evenodd" clip-rule="evenodd" d="M18.8385 3H15.1615C14.6343 2.99998 14.1795 2.99997 13.805 3.03057C13.4096 3.06287 13.0164 3.13419 12.638 3.32698C12.0735 3.6146 11.6146 4.07355 11.327 4.63803C11.1342 5.01641 11.0629 5.40963 11.0306 5.80498C11 6.17952 11 6.63424 11 7.16133V16.8385C11 17.3656 11 17.8205 11.0306 18.195C11.0629 18.5904 11.1342 18.9836 11.327 19.362C11.6146 19.9265 12.0735 20.3854 12.638 20.673C13.0164 20.8658 13.4096 20.9371 13.805 20.9694C14.1795 21 14.6343 21 15.1614 21H18.8386C19.3657 21 19.8205 21 20.195 20.9694C20.5904 20.9371 20.9836 20.8658 21.362 20.673C21.9265 20.3854 22.3854 19.9265 22.673 19.362C22.8658 18.9836 22.9371 18.5904 22.9694 18.195C23 17.8205 23 17.3657 23 16.8386V7.16148C23 6.63434 23 6.17955 22.9694 5.80498C22.9371 5.40963 22.8658 5.01641 22.673 4.63803C22.3854 4.07355 21.9265 3.6146 21.362 3.32698C20.9836 3.13419 20.5904 3.06287 20.195 3.03057C19.8205 2.99997 19.3657 2.99998 18.8385 3ZM15.75 8.25C15.75 7.55965 16.3096 7 17 7C17.6904 7 18.25 7.55965 18.25 8.25C18.25 8.94036 17.6904 9.5 17 9.5C16.3096 9.5 15.75 8.94036 15.75 8.25ZM17 12.5C15.6193 12.5 14.5 13.6193 14.5 15C14.5 16.3807 15.6193 17.5 17 17.5C18.3807 17.5 19.5 16.3807 19.5 15C19.5 13.6193 18.3807 12.5 17 12.5Z" fill="#801ED7"/>
<path d="M8 5L5.16146 5C4.63431 4.99998 4.17955 4.99997 3.80497 5.03057C3.40963 5.06287 3.01641 5.13419 2.63803 5.32698C2.07354 5.6146 1.6146 6.07354 1.32698 6.63803C1.13419 7.01641 1.06287 7.40963 1.03057 7.80497C0.999969 8.17954 0.999984 8.63428 1 9.16141V12.8385C0.999984 13.3657 0.999969 13.8205 1.03057 14.195C1.06287 14.5904 1.13419 14.9836 1.32698 15.362C1.6146 15.9265 2.07354 16.3854 2.63803 16.673C3.01641 16.8658 3.40963 16.9371 3.80497 16.9694C4.17954 17 4.6343 17 5.16145 17H8C8.55229 17 9 16.5523 9 16V6C9 5.44772 8.55229 5 8 5Z" fill="#801ED7"/>
<path d="M5.5 19C4.94772 19 4.5 19.4477 4.5 20C4.5 20.5523 4.94772 21 5.5 21H8C8.55229 21 9 20.5523 9 20C9 19.4477 8.55229 19 8 19H5.5Z" fill="#801ED7"/>
</svg>
